!!!COM: one-republic
!!!OTL: say
!!!RNB: hooktheoryid: knJmBzkEmAV
**kern	**text
*clefG2	*
*k[f#c#g#]	*
*M4/4	*
=1	=1
8.cc#	A
4..b	.
16a	.
16a	.
16a	.
16b	.
16cc#	.
[16cc#	.
=2	=2
8cc#]	E
2b	.
16r	.
16a	.
16a	.
16b	.
16cc#	.
[16cc#	.
=3	=3
16cc#]	F#m
[4b	.
16b]	.
8.cc#	.
4..b	.
=4	=4
16cc#	D
16cc#	.
16b	.
16ee	.
8cc#	.
4..b	.
8r	.
16ee	.
=5	=5
4aa	A
8ee	.
8dd	.
4.cc#	.
16a	.
16a	.
=6	=6
4aa	E
8ee	.
2b	.
16a	.
16a	.
=7	=7
4aa	F#m
8ee	.
8dd	.
4..cc#	.
16cc#	.
=8	=8
8ee	D
16ee	.
8ee	.
16dd	.
2ff#	.
8r	.
*-	*-